X:72
T:Farandole de Cannes
O:France
A:Provence
C:Trad.
R:Farandole
M:6/8
Q:3/8=90
K:Bbmajor
FBd|f=ef gfe|f2d ded|d2c cdc|c2!breath!B FBd|f=ef gfe|f2d ded|d2c cdc|B3 aba|
a2g gag|g2f f=ed|cd=e fg^g|a3 aba|a2g gag|g2f f=ed|cd=e fga|f3|]
<end>
<start>
